!!!COM: Bach, Johann Sebastian
!!!OTL@@DE: 40. Ach Gott und Herr, wie gross und schwer
!!!OTL@EN: Ah, God and Lord, how great and heavy my sins
!!!SCA: BWV 240
**harm	**root	**kern	**kern	**kern	**kern
*staff2	*	*staff2	*staff2	*staff1	*staff1
*Iorgan	*Iorgan	*Iorgan	*Iorgan	*Iorgan	*Iorgan
!	!	!bass	!tenor	!alto	!sprno
*	*	*clefF4	*clefF4	*clefG2	*clefG2
*k[]	*k[]	*k[]	*k[]	*k[]	*k[]
*C:	*C:	*C:	*C:	*C:	*C:
*met(c)	*met(c)	*met(c)	*met(c)	*met(c)	*met(c)
*M4/4	*M4/4	*M4/4	*M4/4	*M4/4	*M4/4
*MM60	*MM60	*MM60	*MM60	*MM60	*MM60
I	4CC	4C	4e	4g	4cc
=1	=1	=1	=1	=1	=1
V	4GG	4G	[4d	4g	4b
V7/V	4DD	4D	8dL]	4f#	4a
.	.	.	8cJ	.	.
V;	4GG;	4GG;	4B;	4d;	4g;
I	4CC	4C	8cL	8eL	4g
.	.	.	8B-J	8dJ	.
=2	=2	=2	=2	=2	=2
IV	4FF	8FL	8AL	4c	4a
.	.	8EJ	8GJ	.	.
viiob	4BB	4D	4F	4d	4b
I;	4CC;	4C;	4G;	4e;	4cc;
V	4GG	4GG	4B	[4g	4dd
=3	=3	=3	=3	=3	=3
viiob/V	4FF#	4AA	4c	8gL]	4cc
.	.	.	.	8f#J	.
Vb	4GG	8BBL	4d	4g	4b
.	.	8CJ	.	.	.
V/V	4DD	4D	4d	4f#	4a
V	4GG	4G	4d	[4g	8bL
.	.	.	.	.	8ccJ
=4	=4	=4	=4	=4	=4
vi7b	4AA	4C	4e	4g]	2a
V7/V	4DD	4D	8dL	4f#	.
.	.	.	8cJ	.	.
V;	4GG;	4GG;	4B;	4d;	4g;
Ib	4CC	4E	4c	4g	4cc
=5	=5	=5	=5	=5	=5
!!linebreak: 2
viiob	4BB	4D	4d	4f	4b
I	4CC	4C	4e	4g	4cc
V;	4GG;	4G;	4B;	4g;	4dd;
V	4GG	4G	4B	4g	4dd
=6	=6	=6	=6	=6	=6
I	4CC	8cL	4c	4g	4ee
.	.	8BJ	.	.	.
V7c/V	4DD	4A	4c	4f#	8ddL
.	.	.	.	.	8ccJ
V;	4GG;	4G;	4B;	4g;	4dd;
Ib	4CC	4E	4c	4g	4g
=7	=7	=7	=7	=7	=7
V7b/V	4DD	4F#	4c	4d	4a
viio/VI	4GG#	4G#	4B	4d	4b
vi	4AA	4A	8eL	4.c	8ccL
.	.	.	8fn	.	8dd
Ic	8CC	8GnL	8g	.	8ee
IV	8FF	8FnJ	8cJ	8a	8ffJ
=8	=8	=8	=8	=8	=8
Ic	4CC	4G	4c	4.g	2dd
V7	4GG	4GG	4B	.	.
.	.	.	.	8f	.
I;	4CC;	4C;	4G;	4e;	4cc;
==	==	==	==	==	==
*-	*-	*-	*-	*-	*-
!!!ENC: Craig Stuart Sapp
!!!END: 2004/12/06/
!!!ONB: Harmony and Root analysis done manually by Craig Sapp
!!chor2scor: -l 2 -s 0.6 -o %b.pmx
